fig/python-function.svg

<svg height="130" width="340" xmlns="http://www.w3.org/2000/svg" xmlns:xlink="http://www.w3.org/1999/xlink">
  <defs>
    <marker id="arrowhead" orient="auto" overflow="visible" refX="0" refY="0">
      <path d="m8.7 4-10.9-4 10.9-4c-1.7 2.4-1.7 5.6 0 8z" fill-rule="evenodd" stroke="#000" stroke-linejoin="round" stroke-width=".6" transform="scale(-.6)"/>
    </marker>
  </defs>
  <text font-family="monospace" font-size="16" text-anchor="middle" x="34.2" xml:space="preserve" y="56.3"><tspan text-anchor="start" x="34.2" y="56.3"><tspan fill="#008000" font-weight="bold">def</tspan> <tspan fill="#00f">fahr_to_celsius</tspan><tspan fill="#6e5494">(temp):</tspan></tspan><tspan text-anchor="start" x="34.2" y="85.1">    <tspan fill="#008000" font-weight="bold">return</tspan> <tspan fill="#6e5494">((temp - 32) * (5/9))</tspan></tspan></text>
  <g fill="none" marker-end="url(#arrowhead)" pointer-events="none" stroke="#000" stroke-miterlimit="10">
    <path d="m66.1 14.7-14.7 21.7"/>
    <path d="m153.8 14.7-14.7 21.7"/>
    <path d="m263.9 14.7-14.7 21.7"/>
    <path d="m220.2 116.5 14.7-21.7"/>
    <path d="m86.1 116.5 14.8-21.8"/>
  </g>
  <g font-size="12" font-family="sans-serif" text-anchor="middle">
    <text x="58.3" y="10.6">def statement</text>
    <text x="153.9" y="10.6">name</text>
    <text x="256.1" y="10.6">parameter names</text>
    <text x="14.9" y="82.5">body</text>
    <text x="93.4" y="128">return statement</text>
    <text x="227.6" y="128.4">return value</text>
  </g>
  <path d="m48.9 61.9h-13.7v34.5h13.7" fill="none" stroke="#000"/>
</svg>

<?xml version="1.0" encoding="UTF-8" standalone="no"?>
<svg
   height="130"
   width="359"
   version="1.1"
   id="svg16"
   sodipodi:docname="python-function.svg"
   inkscape:version="1.3 (0e150ed, 2023-07-21)"
   xmlns:inkscape="http://www.inkscape.org/namespaces/inkscape"
   xmlns:sodipodi="http://sodipodi.sourceforge.net/DTD/sodipodi-0.dtd"
   xmlns="http://www.w3.org/2000/svg"
   xmlns:svg="http://www.w3.org/2000/svg">
  <sodipodi:namedview
     id="namedview16"
     pagecolor="#ffffff"
     bordercolor="#000000"
     borderopacity="0.25"
     inkscape:showpageshadow="2"
     inkscape:pageopacity="0.0"
     inkscape:pagecheckerboard="0"
     inkscape:deskcolor="#d1d1d1"
     inkscape:zoom="1.8153846"
     inkscape:cx="182.05509"
     inkscape:cy="59.491526"
     inkscape:window-width="1312"
     inkscape:window-height="431"
     inkscape:window-x="0"
     inkscape:window-y="34"
     inkscape:window-maximized="0"
     inkscape:current-layer="svg16" />
  <defs
     id="defs1">
    <marker
       id="arrowhead"
       orient="auto"
       overflow="visible"
       refX="0"
       refY="0">
      <path
         d="M 8.7,4 -2.2,0 8.7,-4 C 7,-1.6 7,1.6 8.7,4 Z"
         fill-rule="evenodd"
         stroke="#000000"
         stroke-linejoin="round"
         stroke-width="0.6"
         transform="scale(-0.6)"
         id="path1" />
    </marker>
  </defs>
  <text
     font-family="monospace"
     font-size="16px"
     text-anchor="middle"
     x="34.200001"
     xml:space="preserve"
     y="56.299999"
     id="text7"><tspan
       text-anchor="start"
       x="34.200001"
       y="56.299999"
       id="tspan4"><tspan
   fill="#008000"
   font-weight="bold"
   id="tspan1">def</tspan> <tspan
   fill="#0000ff"
   id="tspan2">fahr_to_celsius</tspan><tspan
   fill="#6e5494"
   id="tspan3">(temp_f):</tspan></tspan><tspan
       text-anchor="start"
       x="34.200001"
       y="85.099998"
       id="tspan7">    <tspan
   fill="#008000"
   font-weight="bold"
   id="tspan5">return</tspan> <tspan
   fill="#6e5494"
   id="tspan6">((temp_f - 32) * (5/9))</tspan></tspan></text>
  <g
     fill="none"
     marker-end="url(#arrowhead)"
     pointer-events="none"
     stroke="#000000"
     stroke-miterlimit="10"
     id="g11">
    <path
       d="M 66.1,14.7 51.4,36.4"
       id="path7" />
    <path
       d="M 153.8,14.7 139.1,36.4"
       id="path8" />
    <path
       d="M 263.9,14.7 249.2,36.4"
       id="path9" />
    <path
       d="M 220.2,116.5 234.9,94.8"
       id="path10" />
    <path
       d="M 86.1,116.5 100.9,94.7"
       id="path11" />
  </g>
  <g
     font-size="12px"
     font-family="sans-serif"
     text-anchor="middle"
     id="g16">
    <text
       x="58.299999"
       y="10.6"
       id="text11">def statement</text>
    <text
       x="153.89999"
       y="10.6"
       id="text12">name</text>
    <text
       x="256.10001"
       y="10.6"
       id="text13">parameter names</text>
    <text
       x="14.9"
       y="82.5"
       id="text14">body</text>
    <text
       x="93.400002"
       y="128"
       id="text15">return statement</text>
    <text
       x="227.60001"
       y="128.39999"
       id="text16">return value</text>
  </g>
  <path
     d="M 48.9,61.9 H 35.2 v 34.5 h 13.7"
     fill="none"
     stroke="#000000"
     id="path16" />
</svg>
